status/display-brightness-symbolic.svg

<?xml version="1.0" encoding="UTF-8" standalone="no"?>
<!-- Created with Inkscape (http://www.inkscape.org/) -->

<svg
   xmlns:dc="http://purl.org/dc/elements/1.1/"
   xmlns:cc="http://creativecommons.org/ns#"
   xmlns:rdf="http://www.w3.org/1999/02/22-rdf-syntax-ns#"
   xmlns:svg="http://www.w3.org/2000/svg"
   xmlns="http://www.w3.org/2000/svg"
   xmlns:sodipodi="http://sodipodi.sourceforge.net/DTD/sodipodi-0.dtd"
   xmlns:inkscape="http://www.inkscape.org/namespaces/inkscape"
   width="16"
   height="16"
   id="svg4152"
   version="1.1"
   inkscape:version="0.92.1 r"
   viewBox="0 0 16 16"
   sodipodi:docname="display-brightness-symbolic.svg">
  <defs
     id="defs4154" />
  <sodipodi:namedview
     id="base"
     pagecolor="#ededed"
     bordercolor="#000000"
     borderopacity="0.49803922"
     inkscape:pageopacity="0"
     inkscape:pageshadow="2"
     inkscape:zoom="22.197802"
     inkscape:cx="5.9767189"
     inkscape:cy="8.8623511"
     inkscape:current-layer="layer1"
     showgrid="true"
     inkscape:grid-bbox="true"
     inkscape:document-units="px"
     inkscape:showpageshadow="false"
     borderlayer="true"
     inkscape:window-width="1920"
     inkscape:window-height="1012"
     inkscape:window-x="0"
     inkscape:window-y="32"
     inkscape:window-maximized="1">
    <inkscape:grid
       type="xygrid"
       id="grid4700"
       color="#000000"
       opacity="0.0627451"
       empcolor="#000000"
       empopacity="0.1254902"
       empspacing="4"
       spacingx="2"
       spacingy="2" />
  </sodipodi:namedview>
  <metadata
     id="metadata4157">
    <rdf:RDF>
      <cc:Work
         rdf:about="">
        <dc:format>image/svg+xml</dc:format>
        <dc:type
           rdf:resource="http://purl.org/dc/dcmitype/StillImage" />
        <dc:title />
      </cc:Work>
    </rdf:RDF>
  </metadata>
  <g
     id="layer1"
     inkscape:label="Layer 1"
     inkscape:groupmode="layer">
    <path
       style="color:#000000;font-style:normal;font-variant:normal;font-weight:normal;font-stretch:normal;font-size:medium;line-height:normal;font-family:sans-serif;font-variant-ligatures:normal;font-variant-position:normal;font-variant-caps:normal;font-variant-numeric:normal;font-variant-alternates:normal;font-feature-settings:normal;text-indent:0;text-align:start;text-decoration:none;text-decoration-line:none;text-decoration-style:solid;text-decoration-color:#000000;letter-spacing:normal;word-spacing:normal;text-transform:none;writing-mode:lr-tb;direction:ltr;text-orientation:mixed;dominant-baseline:auto;baseline-shift:baseline;text-anchor:start;white-space:normal;shape-padding:0;clip-rule:nonzero;display:inline;overflow:visible;visibility:visible;opacity:1;isolation:auto;mix-blend-mode:normal;color-interpolation:sRGB;color-interpolation-filters:linearRGB;solid-color:#000000;solid-opacity:1;vector-effect:none;fill:#000000;fill-opacity:1;fill-rule:evenodd;stroke:none;stroke-width:2;stroke-linecap:round;stroke-linejoin:round;stroke-miterlimit:4;stroke-dasharray:none;stroke-dashoffset:0;stroke-opacity:1;color-rendering:auto;image-rendering:auto;shape-rendering:auto;text-rendering:auto;enable-background:accumulate"
       d="M 7.984375 0 C 7.7246012 0.0041421 7.4766349 0.10921259 7.2929688 0.29296875 L 5.5859375 2 L 3 2 C 2.4477381 2.0000552 2.0000552 2.4477381 2 3 L 2 5.5859375 L 0.29296875 7.2929688 C -0.09739958 7.6834986 -0.09739958 8.3165013 0.29296875 8.7070312 L 2 10.414062 L 2 13 C 2.0000552 13.552262 2.4477381 13.999945 3 14 L 5.5859375 14 L 7.2929688 15.707031 C 7.6834986 16.097399 8.3165013 16.097399 8.7070312 15.707031 L 10.414062 14 L 13 14 C 13.552262 13.999945 13.999945 13.552262 14 13 L 14 10.414062 L 15.707031 8.7070312 C 16.097399 8.3165014 16.097399 7.6834987 15.707031 7.2929688 L 14 5.5859375 L 14 3 C 13.999945 2.4477381 13.552262 2.0000552 13 2 L 10.414062 2 L 8.7070312 0.29296875 C 8.5157081 0.10155695 8.2549779 -0.00414442 7.984375 0 z M 8 4 A 4 4 0 0 1 12 8 A 4 4 0 0 1 8 12 L 8 8 L 8 4 z "
       id="path4547" />
  </g>
</svg>

<svg xmlns="http://www.w3.org/2000/svg" width="16" height="16">
    <path d="M7.984 0a1 1 0 0 0-.691.293L5.586 2H3a1 1 0 0 0-1 1v2.586L.293 7.293a1 1 0 0 0 0 1.414L2 10.414V13a1 1 0 0 0 1 1h2.586l1.707 1.707a1 1 0 0 0 1.414 0L10.414 14H13a1 1 0 0 0 1-1v-2.586l1.707-1.707a1 1 0 0 0 0-1.414L14 5.586V3a1 1 0 0 0-1-1h-2.586L8.707.293A1 1 0 0 0 7.984 0zM8 4a4 4 0 0 1 4 4 4 4 0 0 1-4 4V4z" fill-rule="evenodd"/>
</svg>
